X:1
T:Title
%%score ( 1 2 3 ) ( 4 5 )
L:1/8
Q:1/4=100
M:4/2
K:D
V:1 treble nm="Grand Piano, Piano"
V:2 treble 
V:3 treble 
V:4 bass nm="Grand Piano, Piano"
V:5 bass 
V:1
 F4 A4 B2 A2 G2 F2 | E6 D2 D8 |[M:4/4] [DF]4 [E^G]4 | A6 A2 |[M:8/4] [FB]4 c2 d2 [Ed]4 [Ec]4 | %5
w: 1.~God~ be~ with~ you~ till~ we~|meet~ a gain;~|by~ his~|coun sels~|guide,~ u * phold~ you,~|
 [Dd]6 [Dc]2 [DB]4 [DA]4 |[M:4/4] [EG]4 A2 B2 | [EA]4 [CG]4 |[M:8/4] F4 [=CA]4 B2 A2 G2 F2 | %9
w: with~ his~ sheep~ se|cure ly~ *|fold~ you;~||
 z4 z2 D2 [A,D]8 |] %10
w: |
V:2
 D8 D8 | D4 C4 z8 |[M:4/4] x8 | E4 C4 |[M:8/4] z4 E4 z8 | x16 |[M:4/4] z4 E4 | x8 |[M:8/4] x16 | %9
 E8 z8 |] %10
V:3
 x16 | x16 |[M:4/4] x8 | x8 |[M:8/4] x16 | x16 |[M:4/4] x8 | x8 |[M:8/4] D8 [B,D-]8 | D4 C4 z8 |] %10
V:4
 A,4- [F,A,]4 B,4- [E,B,]4 | E,4 z4 z8 |[M:4/4] [D,A,]4 [D,B,]4 | [C,A,]4 [F,A,]4 | %4
[M:8/4] z8 z4 A,4 | [F,A,]6 [F,A,]2 [G,B,]4 [F,B,]4 |[M:4/4] [E,B,]4 [D,G,]4 | [C,A,]4 [A,,A,]4 | %8
[M:8/4] A,8 G,8 | A,4 z4 z8 |] %10
V:5
 D,4 z4 G,4 z4 | A,,4- [A,,G,]4 [D,F,]8 |[M:4/4] x8 | x8 |[M:8/4] [D,A,]4 [E,^G,]4 A,4 z2 =G,2 | %5
 x16 |[M:4/4] x8 | x8 |[M:8/4] D,4 F,4 z4 E,4 | A,,4- [A,,G,]4 [D,F,]8 |] %10

